X:1
T:Juba, 87.87 D
T:Juba, 87.87 D
T:James McGranahan, 1891
T:Public Domain Courtesy of the Cyber Hymnal™
C:James McGranahan, 1891
Z:Public Domain
Z:Courtesy of the Cyber Hymnal™
%%score ( 1 2 ) ( 3 4 )
L:1/8
Q:1/4=96
M:3/4
K:Ab
V:1 treble 
V:2 treble 
V:3 bass 
V:4 bass 
V:1
 [Ec][DB] | [CA]2 [CE]2 [EA][EG] | [EG]2 [DF]2 [EB][Ec] | [Ed]3 [EG] [EA][FB] | [Ec]4 [Ec][DB] | %5
 [CA]2 [CE]2 [EA][EG] | [EG]2 [DF]2 [DB][Ec] | [Fd]3 [DF] [DG][DB] | [CA]4 [CA][CG] | %9
 [CF]3 [C=E] [CF][CA] | [CG]2 C2 [CA][CG] | [CF]3 [C=E] [CF][=DA] | (GB !fermata!d2) [Ec][DB] | %13
 [CA]2 [CE]2 [EA][EG] | [EG]2 [DF]2 [DB][Fc] | [Fe]3 [Fd] [EG][EB] | [EA]4 |] %17
V:2
 x2 | x6 | x6 | x6 | x6 | x6 | x6 | x6 | x6 | x6 | x2 C2 x2 | x6 | E4 x2 | x6 | x6 | x6 | x4 |] %17
V:3
 [A,,A,][A,,E,] | [A,,E,]2 [A,,A,]2 [C,E,][C,E,] | [D,A,]2 [D,A,]2 [D,G,][C,A,] | %3
 [B,,G,]3 [E,D] [E,C][E,G,] | [A,,A,]4 [A,,A,][A,,E,] | [A,,E,]2 [A,,A,]2 [C,E,][C,E,] | %6
 [D,A,]2 [D,A,]2 [D,F,][C,A,] | [B,,A,]3 [B,,A,] [E,B,]E, | [A,,E,]4 [C,F,][C,G,] | %9
 [F,A,]3 G, [F,A,]F, | [C,=E,]2 [C,E,]2 [C,F,][C,B,] | [F,A,]3 G, [F,A,][B,,B,] | %12
 [E,B,]4 [E,A,]E, | [A,,E,]2 [A,,A,]2 [C,A,][C,E,] | [D,A,]2 [D,A,]2 [D,A,][C,A,] | %15
 [B,,B,]3 [B,,B,] [E,D][E,D] | [A,,C]4 |] %17
V:4
 x2 | x6 | x6 | x6 | x6 | x6 | x6 | x5 E, | x6 | x3 G, F, x | x6 | x3 G, x2 | x5 E, | x6 | x6 | %15
 x6 | x4 |] %17

